X:1
T:Title
%%score { ( 1 3 ) | ( 2 4 ) }
L:1/8
M:4/4
K:A
V:1 treble nm="Grand Piano"
V:3 treble 
V:2 bass 
V:4 bass 
V:1
 z4 z2[Q:1/4=106] [CE]2 | [CA]2 [EG]2 [DF]2 [DG]2 | A4 z4 | B2 A2 G2 A2 | B6 =c2 | c2 c2 c2 d2 | %6
 e2 e2 e2 [EAc]2 | [EGB]2 [EGB]2 [B,FA]2 [A,^DF]2 | E6 E>D | C2 [CE]2 [CA]2 [Ec]2 | c4 B2 G>F | %11
 E2 G2 B2 [Gd]2 | [Gd]4 c2 [Ec]>[DB] | [CA]2 [Ec]2 [Ec]2 [=Ge]2 | [Fe]2 [Fd]2 [Fd]2 [Ec]>B | %15
 A2 A2 B2 G2 |[M:3/4] [CA]6 |] %17
V:2
 z4 z2 [A,,A,]2 | [A,,A,]2 [A,,A,]2 [A,,A,]2 [A,,A,]2 | z4 E2 A,,2 | %3
 [E,G,D]2 [E,A,C]2 [E,B,]2 [E,A,C]2 | [E,G,D]6 [E,G,D]2 | [A,C]2 [A,E]2 [A,E]2 [A,B,E]2 | %6
 [A,CE]2 [A,CE]2 [A,CE]2 A,,2 | B,,2 B,,2 B,,2 B,,2 | [E,G,]6 [E,G,B,]2 | %9
 [A,,A,]2 [A,,A,]2 [A,,E,]2 [A,,A,]2 | [E,E]4- [E,G,E]2 [E,E]->[E,A,E] | %11
 [E,G,]2 [E,B,E]2 [E,DE]2 [E,B,]2 | [E,B,]4 [A,A]2 [A,,A,]2 | [A,,E,]2 [A,,A,]2 [A,,A,]2 [C,A,]2 | %14
 [D,A,]2 [D,A,]2 [D,A,]2 z z/ D/ | [E,A,C]2 [E,A,C]2 [E,G,D]2 [E,B,D]2 |[M:3/4] [A,,A,]6 |] %17
V:3
 x8 | x8 | C6 [A,CA]2 | x8 | x8 | x8 | x8 | x8 | x8 | x8 | x8 | x8 | x8 | x8 | x8 | x8 | %16
[M:3/4] x6 |] %17
V:4
 x8 | x8 | [A,,A,]6 z2 | x8 | x8 | x8 | x8 | x8 | x8 | x8 | A,4 z2 B,2 | x8 | x8 | x8 | %14
 z4 z2 [D,A,]2 | x8 |[M:3/4] x6 |] %17

